w3c-2025-clean/svg/w3c-letters-black.svg

<?xml version="1.0" encoding="UTF-8" standalone="no"?>
<svg
   width="120.00002"
   height="120"
   version="1.1"
   viewBox="0 0 120.00002 120"
   id="svg12"
   xmlns="http://www.w3.org/2000/svg"
   xmlns:svg="http://www.w3.org/2000/svg">
  <defs
     id="defs16" />
  <path
     style="fill:none;stroke:#000000;stroke-width:10.6665;stroke-linecap:round"
     d="M 70.382491,57.352242 70.418974,57.392327 C 73.304828,60.459437 77.694558,61.798784 81.002236,61.798784 87.045879,61.798784 91.753198,57.306653 91.753198,57.306653 M 50.251508,15.838242 C 50.251508,15.838242 54.863633,11.353397 60.82384,11.353397 64.540657,11.353397 68.665286,12.536072 71.481852,15.719731 L 90.4916,37.208706 C 93.162657,40.227917 97.750068,41.620627 101.18063,41.620627 111.59937,41.620627 114.66677,37.559125 114.66677,32.54884 114.66677,27.538582 110.60519,23.477057 105.59487,23.477057 M 70.382491,57.352242 31.236298,15.750717 C 29.414234,13.814291 25.828714,11.353397 20.46706,11.353397 12.478742,11.353397 5.3426052,17.796902 5.3332586,26.487028 5.3285999,30.817578 6.707736,34.029 9.9220697,37.245189 L 30.065832,57.399648 C 33.280165,60.615789 36.567178,61.810165 40.645454,61.798784 46.643577,61.782016 48.662476,60.165125 51.345406,57.394146 M 99.179337,7.9903437 C 100.79431,6.3223809 103.08907,5.3332501 105.5942,5.3332501 110.60457,5.3332501 114.66621,9.3948825 114.66621,14.405133 114.66621,19.41007 110.59903,23.477057 105.5942,23.477057"
     id="path2-5" />
  <path
     d="M 3.4530943,81.557274 H 9.755181 q 1.002605,0 1.632813,0.458333 0.658855,0.458334 0.888022,1.203126 l 5.614586,21.971367 q 0.48698,1.71875 0.916667,3.98177 0.229167,-1.11719 0.458334,-2.11979 0.229167,-1.03125 0.544271,-1.89063 l 6.645837,-21.942717 q 0.229167,-0.658855 0.888021,-1.145834 0.658855,-0.515625 1.575522,-0.515625 h 2.20573 q 1.002605,0 1.604168,0.458333 0.630208,0.429688 0.888021,1.203126 L 40.26301,105.1901 q 0.286459,0.83073 0.515625,1.83333 0.257813,0.97396 0.48698,2.0625 0.200521,-1.08854 0.401042,-2.0625 0.229166,-0.97396 0.458333,-1.80469 l 5.614587,-22.000007 q 0.200521,-0.658855 0.859375,-1.145834 0.6875,-0.515625 1.604168,-0.515625 h 5.901044 L 44.8177,119.59896 H 37.999988 L 30.46613,94.304676 q -0.171875,-0.486979 -0.34375,-1.088542 -0.14323,-0.601563 -0.286459,-1.260417 -0.143229,0.658854 -0.315104,1.260417 -0.171875,0.601563 -0.315105,1.088542 L 21.528625,119.59896 H 14.739559 Z M 58.539061,119.59896 Z M 72.432297,81.127586 q 2.635419,0 4.726566,0.773438 2.119792,0.773438 3.580731,2.119793 1.460938,1.317709 2.234376,3.122397 0.802084,1.776043 0.802084,3.809898 0,1.804688 -0.401042,3.179689 -0.372396,1.375001 -1.117188,2.406252 -0.744792,1.03125 -1.833335,1.747396 -1.088542,0.716147 -2.463543,1.17448 6.502608,2.205731 6.502608,8.794271 0,2.89324 -1.059896,5.09897 -1.031251,2.17708 -2.807294,3.66666 -1.747396,1.48959 -4.096356,2.23438 Q 74.179694,120 71.601568,120 q -2.721356,0 -4.812503,-0.63021 -2.062501,-0.6302 -3.638023,-1.89062 -1.546875,-1.28907 -2.692709,-3.17969 -1.117188,-1.89063 -1.919272,-4.38282 l 3.03646,-1.28906 q 1.203125,-0.48698 2.234376,-0.22917 1.059896,0.22917 1.489584,1.11719 0.515625,0.97396 1.088542,1.83334 0.572917,0.83073 1.289064,1.48958 0.744792,0.63021 1.690105,1.00261 0.945313,0.37239 2.177084,0.37239 1.51823,0 2.635418,-0.48698 1.145834,-0.51562 1.890626,-1.31771 0.744792,-0.83073 1.117188,-1.86198 0.372396,-1.03125 0.372396,-2.0625 0,-1.31771 -0.257812,-2.40625 -0.229167,-1.08854 -1.088542,-1.86198 -0.83073,-0.77344 -2.463543,-1.20313 -1.632814,-0.42968 -4.440107,-0.42968 v -4.898443 q 2.34896,-0.02865 3.838544,-0.429688 1.51823,-0.401042 2.377605,-1.117188 0.859376,-0.744792 1.17448,-1.747397 0.315104,-1.002605 0.315104,-2.234376 0,-2.606773 -1.317709,-3.924482 -1.289063,-1.317709 -3.638023,-1.317709 -2.091147,0 -3.494793,1.17448 -1.403647,1.17448 -1.947918,2.893231 -0.458333,1.317709 -1.231771,1.718751 -0.744792,0.401042 -2.148439,0.171875 l -3.638023,-0.630209 q 0.401042,-2.778647 1.51823,-4.841148 1.117188,-2.091147 2.807293,-3.466148 1.690105,-1.403647 3.838544,-2.091147 2.177085,-0.716146 4.669273,-0.716146 z M 112.50784,110.375 q 0.60156,0 1.03125,0.45833 l 3.00781,3.23698 q -2.0625,2.89323 -5.18489,4.41146 Q 108.26825,120 104.00002,120 q -3.86719,0 -6.960939,-1.43229 -3.093752,-1.46094 -5.270836,-4.03906 -2.148439,-2.60678 -3.322919,-6.15886 -1.145834,-3.58073 -1.145834,-7.82032 0,-4.26823 1.231772,-7.820315 1.260417,-3.580731 3.523439,-6.158858 2.263022,-2.578126 5.414066,-4.010419 3.151041,-1.432292 6.932291,-1.432292 3.83855,0 6.78907,1.375001 2.95052,1.346355 4.92709,3.580731 l -2.52084,3.523439 q -0.25781,0.315104 -0.60156,0.572917 -0.31511,0.257813 -0.91667,0.257813 -0.60156,0 -1.17448,-0.458334 -0.54427,-0.458333 -1.375,-1.002605 -0.80208,-0.544271 -2.03385,-1.002604 -1.23178,-0.458334 -3.15105,-0.458334 -2.09114,0 -3.8099,0.888021 -1.718747,0.859376 -2.950518,2.549481 -1.231772,1.661459 -1.919272,4.096356 -0.658854,2.406252 -0.658854,5.500002 0,3.1224 0.744792,5.5573 0.744792,2.43489 2.005209,4.125 1.289063,1.66146 3.007813,2.54948 1.71875,0.85937 3.69532,0.85937 1.17448,0 2.11979,-0.11458 0.94531,-0.14323 1.7474,-0.45833 0.83072,-0.34375 1.54687,-0.85938 0.71615,-0.51562 1.43229,-1.28906 0.28646,-0.22917 0.57292,-0.3724 0.3151,-0.17187 0.63021,-0.17187 z"
     id="text42914"
     style="font-weight:bold;font-size:58.6667px;line-height:125%;font-family:Carlito;-inkscape-font-specification:'Carlito Bold';text-align:center;letter-spacing:0px;word-spacing:0px;text-anchor:middle;fill:#000000;stroke-width:1px"
     aria-label="W3C" />
</svg>

<?xml version="1.0" encoding="UTF-8" standalone="no"?>
<svg
   width="120.00002"
   height="120"
   version="1.1"
   viewBox="0 0 120.00002 120"
   id="svg12"
   xml:space="preserve"
   xmlns="http://www.w3.org/2000/svg"
   xmlns:svg="http://www.w3.org/2000/svg"><defs
     id="defs16" /><path
     style="opacity:1;fill:none;stroke:#000000;stroke-width:10.6665;stroke-linecap:round;stroke-dasharray:none;stroke-opacity:1"
     d="M 70.382491,57.352242 70.418974,57.392327 C 73.304828,60.459437 77.694558,61.798784 81.002236,61.798784 87.045879,61.798784 91.753198,57.306653 91.753198,57.306653 M 50.251508,15.838242 C 50.251508,15.838242 54.863633,11.353397 60.82384,11.353397 64.540657,11.353397 68.665286,12.536072 71.481852,15.719731 L 90.4916,37.208706 C 93.162657,40.227917 97.750068,41.620627 101.18063,41.620627 111.59937,41.620627 114.66677,37.559125 114.66677,32.54884 114.66677,27.538582 110.60519,23.477057 105.59487,23.477057 M 70.382491,57.352242 31.236298,15.750717 C 29.414234,13.814291 25.828714,11.353397 20.46706,11.353397 12.478742,11.353397 5.3426052,17.796902 5.3332586,26.487028 5.3285999,30.817578 6.707736,34.029 9.9220697,37.245189 L 30.065832,57.399648 C 33.280165,60.615789 36.567178,61.810165 40.645454,61.798784 46.643577,61.782016 48.662476,60.165125 51.345406,57.394146 M 99.179337,7.9903437 C 100.79431,6.3223809 103.08907,5.3332501 105.5942,5.3332501 110.60457,5.3332501 114.66621,9.3948825 114.66621,14.405133 114.66621,19.41007 110.59903,23.477057 105.5942,23.477057"
     id="path2-5" /><g
     aria-label="W3C"
     id="text42914"
     style="font-weight:bold;font-size:58.6667px;line-height:125%;font-family:Carlito;-inkscape-font-specification:'Carlito Bold';text-align:center;letter-spacing:0px;word-spacing:0px;text-anchor:middle;display:inline;stroke-width:1px"><path
       d="M 3.4530943,81.557274 H 9.755181 Q 10.757786,81.557274 11.387994,82.015607 12.046849,82.473941 12.276016,83.218733 L 17.890602,105.1901 Q 18.377582,106.90885 18.807269,109.17187 19.036436,108.05468 19.265603,107.05208 19.49477,106.02083 19.809874,105.16145 L 26.455711,83.218733 Q 26.684878,82.559878 27.343732,82.072899 28.002587,81.557274 28.919254,81.557274 H 31.124984 Q 32.127589,81.557274 32.729152,82.015607 33.35936,82.445295 33.617173,83.218733 L 40.26301,105.1901 Q 40.549469,106.02083 40.778635,107.02343 41.036448,107.99739 41.265615,109.08593 41.466136,107.99739 41.666657,107.02343 41.895823,106.04947 42.12499,105.21874 L 47.739577,83.218733 Q 47.940098,82.559878 48.598952,82.072899 49.286452,81.557274 50.20312,81.557274 H 56.104164 L 44.8177,119.59896 H 37.999988 L 30.46613,94.304676 Q 30.294255,93.817697 30.12238,93.216134 29.97915,92.614571 29.835921,91.955717 29.692692,92.614571 29.520817,93.216134 29.348942,93.817697 29.205712,94.304676 L 21.528625,119.59896 H 14.739559 Z"
       id="path7473" /><path
       d="M 58.539061,119.59896 Z M 72.432297,81.127586 Q 75.067716,81.127586 77.158863,81.901024 79.278655,82.674462 80.739594,84.020817 82.200532,85.338526 82.97397,87.143214 83.776054,88.919257 83.776054,90.953112 83.776054,92.7578 83.375012,94.132801 83.002616,95.507802 82.257824,96.539053 81.513032,97.570303 80.424489,98.286449 79.335947,99.002596 77.960946,99.460929 84.463554,101.66666 84.463554,108.2552 84.463554,111.14844 83.403658,113.35417 82.372407,115.53125 80.596364,117.02083 78.848968,118.51042 76.500008,119.25521 74.179694,120 71.601568,120 68.880212,120 66.789065,119.36979 64.726564,118.73959 63.151042,117.47917 61.604167,116.1901 60.458333,114.29948 59.341145,112.40885 58.539061,109.91666 L 61.575521,108.6276 Q 62.778646,108.14062 63.809897,108.39843 64.869793,108.6276 65.299481,109.51562 65.815106,110.48958 66.388023,111.34896 66.96094,112.17969 67.677087,112.83854 68.421879,113.46875 69.367192,113.84115 70.312505,114.21354 71.544276,114.21354 73.062506,114.21354 74.179694,113.72656 75.325528,113.21094 76.07032,112.40885 76.815112,111.57812 77.187508,110.54687 77.559904,109.51562 77.559904,108.48437 77.559904,107.16666 77.302092,106.07812 77.072925,104.98958 76.21355,104.21614 75.38282,103.4427 73.750007,103.01301 72.117193,102.58333 69.3099,102.58333 V 97.684887 Q 71.65886,97.656241 73.148444,97.255199 74.666674,96.854157 75.526049,96.138011 76.385425,95.393219 76.700529,94.390614 77.015633,93.388009 77.015633,92.156238 77.015633,89.549465 75.697924,88.231756 74.408861,86.914047 72.059901,86.914047 69.968754,86.914047 68.565108,88.088527 67.161461,89.263007 66.61719,90.981758 66.158857,92.299467 65.385419,92.700509 64.640627,93.101551 63.23698,92.872384 L 59.598957,92.242175 Q 59.999999,89.463528 61.117187,87.401027 62.234375,85.30988 63.92448,83.934879 65.614585,82.531232 67.763024,81.843732 69.940109,81.127586 72.432297,81.127586 Z"
       id="path7475" /><path
       d="M 112.50784,110.375 Q 113.1094,110.375 113.53909,110.83333 L 116.5469,114.07031 Q 114.4844,116.96354 111.36201,118.48177 108.26825,120 104.00002,120 100.13283,120 97.039081,118.56771 93.945329,117.10677 91.768245,114.52865 89.619806,111.92187 88.445326,108.36979 87.299492,104.78906 87.299492,100.54947 87.299492,96.28124 88.531264,92.729155 89.791681,89.148424 92.054703,86.570297 94.317725,83.992171 97.468769,82.559878 100.61981,81.127586 104.40106,81.127586 108.23961,81.127586 111.19013,82.502587 114.14065,83.848942 116.11722,86.083318 L 113.59638,89.606757 Q 113.33857,89.921861 112.99482,90.179674 112.67971,90.437487 112.07815,90.437487 111.47659,90.437487 110.90367,89.979153 110.3594,89.52082 109.52867,88.976548 108.72659,88.432277 107.49482,87.973944 106.26304,87.51561 104.34377,87.51561 102.25263,87.51561 100.53387,88.403631 98.815123,89.263007 97.583352,90.953112 96.35158,92.614571 95.66408,95.049468 95.005226,97.45572 95.005226,100.54947 95.005226,103.67187 95.750018,106.10677 96.49481,108.54166 97.755227,110.23177 99.04429,111.89323 100.76304,112.78125 102.48179,113.64062 104.45836,113.64062 105.63284,113.64062 106.57815,113.52604 107.52346,113.38281 108.32555,113.06771 109.15627,112.72396 109.87242,112.20833 110.58857,111.69271 111.30471,110.91927 111.59117,110.6901 111.87763,110.54687 112.19273,110.375 112.50784,110.375 Z"
       id="path7477" /></g></svg>
